app/public/images/truck.svg

<svg height="49" viewBox="0 0 79 49" width="79" xmlns="http://www.w3.org/2000/svg"><g fill="none" fill-rule="evenodd"><path d="m54.018 1.76h10.51l5.01 15.52-15.25.25z" fill="#d8eef5"/><g stroke="#5b6a72" stroke-width="2"><path d="m5.584 25.344v7.928h2.832v7.89h5.65m-8.399-32.152v-7.676h58.477l5.672 15.862 6.008 3.84c.912.62 1.843 1.653 1.843 2.757v17.536h-7.007m-43.564.043h30.534"/><path d="m64.145 47.678a6.522 6.522 0 0 0 6.515-6.514 6.522 6.522 0 0 0 -6.515-6.515 6.522 6.522 0 0 0 -6.515 6.514 6.522 6.522 0 0 0 6.515 6.514zm-43.565 0a6.522 6.522 0 0 0 6.516-6.514 6.522 6.522 0 0 0 -6.515-6.515 6.522 6.522 0 0 0 -6.514 6.514 6.522 6.522 0 0 0 6.515 6.514zm-9.846-27.668h-7.65m-2.751-5.3h13.25m-5.166 18.55h69.21m-23.677-31.927v31.927m0-16.066h15.865"/></g></g></svg>

<svg width="79" height="49" viewBox="0 0 79 49" xmlns="http://www.w3.org/2000/svg"><title>mobile branch</title><g fill="none" fill-rule="evenodd"><path fill="#D8EEF5" d="M54.018 1.76h10.51l5.01 15.52-15.25.25z"/><path stroke="#5B6A72" stroke-width="2" d="M5.584 25.344v7.928h2.832v7.89h5.65M5.667 9.01V1.334h58.477l5.672 15.862 6.008 3.84c.912.62 1.843 1.653 1.843 2.757v17.536H70.66M27.096 41.372H57.63"/><path d="M64.145 47.678a6.522 6.522 0 0 0 6.515-6.514 6.522 6.522 0 0 0-6.515-6.515 6.522 6.522 0 0 0-6.515 6.514 6.522 6.522 0 0 0 6.515 6.514zM20.58 47.678a6.522 6.522 0 0 0 6.516-6.514 6.522 6.522 0 0 0-6.515-6.515 6.522 6.522 0 0 0-6.514 6.514 6.522 6.522 0 0 0 6.515 6.514zM10.734 20.01h-7.65M.333 14.71h13.25M8.417 33.26h69.21M53.95 1.333V33.26M53.95 17.194h15.865" stroke="#5B6A72" stroke-width="2"/></g></svg>
